public/assets/techs/mocha.svg

<svg width="20" height="20" viewBox="0 0 20 20" fill="none" xmlns="http://www.w3.org/2000/svg">
<path d="M11.4615 5.98837C15.579 3.69743 10.5418 1.61287 11.4615 0C7.67226 2.89906 11.5876 3.72277 11.4615 5.98837ZM8.38462 6.16279C11.1786 4.57836 7.54921 3.09537 8.38462 2.15117C5.8978 4.18605 8.3452 4.38473 8.38462 6.16279ZM18 7.73256C18 7.44186 17.6923 7.15116 17.2308 7.15116H2.76923C2.38462 7.15116 2 7.38372 2 7.73256C2 9.7093 2.38462 16.5116 6.23077 19.8256C6.38461 19.9419 6.53846 20 6.76923 20H13.2308C13.4615 20 13.6154 19.9419 13.7692 19.8256C17.6154 16.5698 18 9.76744 18 7.73256ZM12.3077 18.314H7.76923C7.53846 18.314 7.38461 18.2558 7.23077 18.1395C4.61539 15.814 4.30769 11.1628 4.23077 9.53488C4.23077 9.24419 4.53846 8.95349 5 8.95349H15.1538C15.5385 8.95349 15.9231 9.18605 15.9231 9.53488C15.9231 11.1628 15.5385 15.7558 12.9231 18.1395C12.6923 18.2558 12.5385 18.314 12.3077 18.314ZM14.6923 12.907C14.3846 14.4767 13.7692 16.2791 12.4615 17.4419C12.3077 17.5581 12.1538 17.6163 12 17.6163H8.15385C8.00001 17.6163 7.76924 17.5581 7.69231 17.4419C6.76924 16.5698 6.15385 15.407 5.76924 14.1861C9.75973 14.5761 13.863 14.2763 14.6923 12.907Z" fill="#EEEEEE"/>
</svg>

<svg xmlns="http://www.w3.org/2000/svg" width="20" height="20" fill="none" xmlns:v="https://vecta.io/nano"><path d="M11.462 5.988c4.118-2.291-.92-4.375 0-5.988-3.789 2.899.126 3.723 0 5.988zm-3.077.174c2.794-1.584-.835-3.067 0-4.012-2.487 2.035-.039 2.234 0 4.012zM18 7.733c0-.291-.308-.581-.769-.581H2.769c-.385 0-.769.233-.769.581 0 1.977.385 8.779 4.231 12.093.154.116.308.174.538.174h6.462c.231 0 .385-.058.538-.174C17.615 16.57 18 9.767 18 7.733zm-5.692 10.581H7.769c-.231 0-.385-.058-.538-.174-2.615-2.326-2.923-6.977-3-8.605 0-.291.308-.581.769-.581h10.154c.385 0 .769.233.769.581 0 1.628-.385 6.221-3 8.605-.231.116-.385.174-.615.174zm2.385-5.407c-.308 1.57-.923 3.372-2.231 4.535-.154.116-.308.174-.461.174H8.154c-.154 0-.385-.058-.462-.174-.923-.872-1.538-2.035-1.923-3.256 3.99.39 8.094.09 8.923-1.279z" fill="#8d6748"/></svg>
